packages/foundations/assets/icons/functional/images/transportation/train_16.svg

<svg width="16" height="16" viewBox="0 0 16 16" fill="none" xmlns="http://www.w3.org/2000/svg">
<g clip-path="url(#clip0_187_964)">
<path fill-rule="evenodd" clip-rule="evenodd" d="M9.60237 14.4H6.40237C6.02143 14.4 5.70267 14.1337 5.62206 13.7771C5.14226 13.4366 4.72744 12.9221 4.4084 12.1603C4.96965 12.5644 5.36783 12.8385 5.60293 12.9828C5.95559 13.1993 6.40044 13.3582 6.92959 13.3934H9.0752C9.53819 13.3626 10.0114 13.2205 10.403 12.9828C10.6641 12.8244 11.1259 12.5034 11.7884 12.0196C11.4556 12.8221 10.9752 13.4459 10.3697 13.8271C10.2513 14.209 9.99553 14.4 9.60237 14.4ZM7.98151 1.59998C10.9284 1.59998 12.3607 3.60191 12.3974 6.40462L12.4 8.0108C12.4 8.63461 12.371 9.40705 12.2822 10.1007C11.9908 10.3538 11.6294 10.6413 11.1982 10.9633C10.767 11.2853 10.3292 11.5944 9.88473 11.8908C9.62947 12.0635 9.25904 12.2 8.87605 12.2H7.12872C6.74943 12.2 6.37213 12.0598 6.12003 11.8908C5.86793 11.7218 5.27138 11.3069 4.80652 10.9633C4.49662 10.7343 4.19209 10.4947 3.89295 10.2448C3.69763 9.19549 3.59998 8.4493 3.59998 8.00616C3.59998 7.91444 3.59998 7.38059 3.59998 6.40462C3.59998 3.60191 4.96605 1.59998 7.98151 1.59998ZM6.54064 8.93473C6.41034 8.66946 6.1008 8.53471 5.81263 8.63077C5.52446 8.72682 5.35769 9.02035 5.41261 9.31074L5.8641 10.6652C5.9944 10.9305 6.30394 11.0652 6.59211 10.9692C6.88028 10.8731 7.04705 10.5796 6.99213 10.2892L6.54064 8.93473ZM10.1921 8.63077C9.90394 8.53471 9.5944 8.66946 9.4641 8.93473L9.01261 10.2892C8.95769 10.5796 9.12446 10.8731 9.41263 10.9692C9.7008 11.0652 10.0103 10.9305 10.1406 10.6652L10.5921 9.31074C10.647 9.02035 10.4803 8.72682 10.1921 8.63077ZM8.00241 3.19998C7.0793 3.19998 6.34497 3.34556 5.79942 3.63673C5.18106 3.96676 4.77612 4.71709 4.88416 5.45726C5.04127 6.21494 5.14098 6.66624 5.18329 6.81114C5.31086 7.24805 5.66028 7.581 6.09626 7.69075C6.87157 7.82936 7.50697 7.90015 8.00247 7.90312C8.49796 7.9061 9.09739 7.84273 9.80075 7.713C10.2874 7.63535 10.6858 7.28439 10.8242 6.81143C10.8863 6.59942 11.0869 5.69486 11.1225 5.45468C11.2248 4.76352 10.5836 3.80459 10.0559 3.56274C9.5282 3.3209 8.84371 3.19998 8.00241 3.19998Z" fill="#1A1C1F"/>
</g>
<defs>
<clipPath id="clip0_187_964">
<rect width="16" height="16" fill="white"/>
</clipPath>
</defs>
</svg>

<svg xmlns="http://www.w3.org/2000/svg" width="16" height="16" fill="none"><g clip-path="url(#a)"><path fill="#1A1C1F" fill-rule="evenodd" d="M9.602 14.4h-3.2a.8.8 0 0 1-.78-.623c-.48-.34-.895-.855-1.214-1.617q.843.606 1.195.823c.353.216.797.375 1.327.41h2.145c.463-.03.936-.173 1.328-.41q.392-.239 1.385-.963c-.332.802-.813 1.426-1.418 1.807q-.178.573-.768.573M7.982 1.6c2.946 0 4.379 2.002 4.415 4.805L12.4 8.01c0 .624-.029 1.396-.118 2.09q-.437.38-1.084.862-.647.483-1.313.928c-.256.172-.626.309-1.009.309H7.129c-.38 0-.757-.14-1.009-.31a43 43 0 0 1-1.313-.927q-.465-.343-.914-.718Q3.6 8.67 3.6 8.006V6.405C3.6 3.602 4.966 1.6 7.982 1.6M6.54 8.935a.6.6 0 0 0-1.128.376l.451 1.354a.6.6 0 0 0 1.128-.376zm3.651-.304a.6.6 0 0 0-.728.304l-.451 1.354a.6.6 0 0 0 1.128.376l.451-1.354a.6.6 0 0 0-.4-.68M8.002 3.2q-1.384 0-2.203.437a1.82 1.82 0 0 0-.915 1.82q.236 1.137.3 1.354c.127.437.476.77.912.88q1.164.208 1.906.212.744.005 1.799-.19a1.28 1.28 0 0 0 1.023-.902c.062-.212.263-1.116.299-1.356.102-.691-.54-1.65-1.067-1.892Q9.265 3.2 8.002 3.2" clip-rule="evenodd"/></g><defs><clipPath id="a"><path fill="#fff" d="M0 0h16v16H0z"/></clipPath></defs></svg>
